**kern	**kern	**dynam
*part1	*part1	*part1
*staff2	*staff1	*
*I"Piano	*	*
*clefF4	*clefG2	*
*k[b-e-]	*k[b-e-]	*
=1	=1	=1
4DD	(8ddL 8ff	.
.	8b-X	.
8F 8B-	8ddJ) 8ff	.
=	=	=
4DD	(8ccL 8ee-	.
.	8b- 8dd	.
8D 8F#X	8aJ 8cc	.
=	=	=
4DD	8gL 8b-	<
.	8a 8cc	.
8D 8F#X	8dJ) 8a	[ mf
=||	=||	=||
*k[f#]	*k[f#]	*
!	!LO:TX:a:i:t=più 	!
4GG	(8BL 8g	.
.	8d 8a	.
8D 8G	8gJ 8b	.
=	=	=
!	!LO:TX:a:i:t=cresc.	!
4GG	8bL 8dd	.
.	8a 8cc	.
8D 8G	8gJ) 8b	.
=	=	=
4CC	(8eL 8cc	.
.	8g 8dd	.
8E 8G 8c	8ccJ 8ee	.
=	=	=
4CC	8eeL 8gg	.
.	8dd 8ff#	.
8E 8G 8c	8ccJ) 8ee	.
=	=	=
4GG	(8bL 8dd	.
.	8g 8b	.
8D 8G 8B	8bJ) 8dd	.
=	=	=
*-	*-	*-
!!!system-decoration: {(s1,s2)}
